icons/2_Variations/500px bg.var.svg

<svg xmlns="http://www.w3.org/2000/svg" width="1024" height="1024" fill="none">
   <g clip-path="url(#a)">
      <path fill="#54688C" d="M512 1024c282.77 0 512-229.23 512-512S794.77 0 512 0 0 229.23 0 512s229.23 512 512 512Z"/>
      <path fill="#fff" d="M397.78 426.109a85.892 85.892 0 0 0-84.239 102.647 85.889 85.889 0 0 0 170.129-16.757 86.66 86.66 0 0 0-85.89-85.89Zm0 153.74a67.425 67.425 0 0 1-37.525-11.128 67.425 67.425 0 0 1-10.866-103.662 67.419 67.419 0 0 1 115.391 46.94 67.85 67.85 0 0 1-67 67.85Zm184.58-153.74a85.892 85.892 0 0 0-84.239 102.647 85.889 85.889 0 0 0 170.129-16.757 85.89 85.89 0 0 0-85.89-85.89Zm0 153.74a67.425 67.425 0 0 1-37.525-11.128 67.425 67.425 0 0 1-10.866-103.662 67.419 67.419 0 0 1 115.391 46.94 66.735 66.735 0 0 1-65.61 67.84l-1.39.01Zm-332.31-102.21a57.902 57.902 0 0 0-45.52 12v-45.49h77.3c2.58 0 4.29-.86 4.29-8.59 0-7.73-3.44-7.73-5.15-7.73h-85a7.734 7.734 0 0 0-7.73 7.73v75.58c0 4.29 2.58 5.15 6.87 6a6.528 6.528 0 0 0 7.73-1.72 48.868 48.868 0 0 1 42.95-20.61 44.658 44.658 0 0 1 38.65 37.79 43.458 43.458 0 0 1-37.79 48.1h-5.15a43.8 43.8 0 0 1-40.37-28.34c-.86-2.58-2.58-4.29-9.45-1.72-6.87 2.57-7.73 4.29-6.87 6.87a60.32 60.32 0 0 0 77.305 36.075 60.315 60.315 0 0 0 34.048-31.181 60.317 60.317 0 0 0 2.027-46.124 60.114 60.114 0 0 0-48.14-38.64Zm476.61-50.64a46.55 46.55 0 0 0-41.23 46.38v76.44c0 4.29 3.44 5.15 8.59 5.15s8.59-.86 8.59-5.15v-76.47a28.864 28.864 0 0 1 24.91-29.2 28.26 28.26 0 0 1 21.48 6.85 27.398 27.398 0 0 1 9.45 20.61 34.34 34.34 0 0 1-6 16.32 27.055 27.055 0 0 1-24 11.17c-3.44 0-6 0-6.87 7.73 0 5.15 0 7.73 4.29 8.59a42.247 42.247 0 0 0 24.91-5.15 46.113 46.113 0 0 0 24.91-36.07 44.487 44.487 0 0 0-40.63-48l-.77-.06c-2.48.698-5.056.989-7.63.86Zm112.52 44.66 30.92-30.92c.86-.86 3.44-3.44-1.72-9.45a8.593 8.593 0 0 0-6-3.44 4.482 4.482 0 0 0-3.44 1.72l-30.94 30.9-30.92-31.78c-2.58-2.58-5.15-1.72-9.45 1.72-4.3 3.44-4.29 6.87-1.72 9.45l30.92 30.92-31.09 31.78a6.537 6.537 0 0 0-1.74 3.44 7.218 7.218 0 0 0 3.44 6 13.827 13.827 0 0 0 6 3.44 9.09 9.09 0 0 0 4.29-1.72l30.92-30.92 30.92 30.92a4.47 4.47 0 0 0 3.44 1.72 8.59 8.59 0 0 0 6-3.44c2.58-3.44 3.44-6.87.86-8.59l-30.69-31.75Z"/>
   </g>
   <defs>
      <clipPath id="a">
         <path fill="#fff" d="M0 0h1024v1024H0z"/>
      </clipPath>
   </defs>
</svg>

<svg width="1024" height="1024" viewBox="0 0 1024 1024" fill="none" xmlns="http://www.w3.org/2000/svg">
<g clip-path="url(#clip0_3_365)">
<path d="M512 1024C794.77 1024 1024 794.77 1024 512C1024 229.23 794.77 0 512 0C229.23 0 0 229.23 0 512C0 794.77 229.23 1024 512 1024Z" fill="#54688C"/>
<path d="M397.78 426.109C380.793 426.109 364.187 431.147 350.063 440.584C335.938 450.022 324.929 463.436 318.428 479.131C311.928 494.825 310.227 512.095 313.541 528.756C316.855 545.417 325.035 560.721 337.047 572.733C349.059 584.745 364.363 592.925 381.024 596.239C397.685 599.553 414.955 597.852 430.649 591.351C446.343 584.851 459.758 573.842 469.195 559.717C478.633 545.593 483.67 528.987 483.67 511.999C483.469 489.282 474.356 467.552 458.292 451.488C442.228 435.424 420.498 426.31 397.78 426.109ZM397.78 579.849C384.447 579.932 371.388 576.059 360.255 568.721C349.123 561.382 340.416 550.907 335.236 538.62C330.057 526.334 328.637 512.787 331.156 499.693C333.675 486.599 340.02 474.547 349.389 465.059C358.758 455.571 370.73 449.075 383.791 446.391C396.852 443.707 410.415 444.956 422.766 449.98C435.117 455.004 445.701 463.578 453.18 474.618C460.658 485.657 464.695 498.666 464.78 511.999C464.782 529.848 457.75 546.978 445.209 559.679C432.668 572.379 415.628 579.626 397.78 579.849ZM582.36 426.109C565.373 426.109 548.767 431.147 534.643 440.584C520.518 450.022 509.509 463.436 503.008 479.131C496.508 494.825 494.807 512.095 498.121 528.756C501.435 545.417 509.615 560.721 521.627 572.733C533.639 584.745 548.943 592.925 565.604 596.239C582.265 599.553 599.535 597.852 615.229 591.351C630.923 584.851 644.338 573.842 653.775 559.717C663.213 545.593 668.25 528.987 668.25 511.999C668.25 489.22 659.201 467.373 643.094 451.266C626.986 435.158 605.14 426.109 582.36 426.109ZM582.36 579.849C569.027 579.932 555.968 576.059 544.835 568.721C533.703 561.382 524.996 550.907 519.816 538.62C514.637 526.334 513.217 512.787 515.736 499.693C518.255 486.599 524.6 474.547 533.969 465.059C543.338 455.571 555.31 449.075 568.371 446.391C581.432 443.707 594.995 444.956 607.346 449.98C619.697 455.004 630.281 463.578 637.76 474.618C645.238 485.657 649.275 498.666 649.36 511.999C649.655 529.696 642.908 546.784 630.604 559.506C618.3 572.228 601.447 579.542 583.75 579.839L582.36 579.849ZM250.05 477.639C242.046 476.34 233.857 476.736 226.016 478.803C218.174 480.871 210.854 484.562 204.53 489.639V444.149H281.83C284.41 444.149 286.12 443.289 286.12 435.559C286.12 427.829 282.68 427.829 280.97 427.829H195.97C193.92 427.829 191.954 428.644 190.504 430.093C189.055 431.543 188.24 433.509 188.24 435.559V511.139C188.24 515.429 190.82 516.289 195.11 517.139C196.409 517.739 197.869 517.896 199.266 517.585C200.662 517.274 201.918 516.513 202.84 515.419C207.646 508.605 214.116 503.134 221.634 499.527C229.152 495.919 237.468 494.295 245.79 494.809C255.478 496.018 264.502 500.368 271.482 507.193C278.462 514.018 283.014 522.942 284.44 532.599C285.752 543.979 282.517 555.416 275.441 564.423C268.364 573.431 258.017 579.28 246.65 580.699H241.5C232.704 580.576 224.148 577.807 216.947 572.752C209.746 567.697 204.235 560.591 201.13 552.359C200.27 549.779 198.55 548.069 191.68 550.639C184.81 553.209 183.95 554.929 184.81 557.509C190.278 572.545 201.494 584.792 215.992 591.557C230.489 598.323 247.08 599.052 262.115 593.584C277.151 588.117 289.398 576.901 296.163 562.403C302.929 547.906 303.658 531.315 298.19 516.279C294.409 506.088 287.935 497.113 279.458 490.309C270.981 483.505 260.818 479.126 250.05 477.639ZM726.66 426.999C715.287 428.308 704.795 433.761 697.19 442.317C689.584 450.873 685.397 461.932 685.43 473.379V549.819C685.43 554.109 688.87 554.969 694.02 554.969C699.17 554.969 702.61 554.109 702.61 549.819V473.349C702.461 466.275 704.915 459.392 709.508 454.008C714.1 448.625 720.511 445.116 727.52 444.149C731.379 443.756 735.278 444.161 738.973 445.34C742.669 446.518 746.082 448.445 749 450.999C751.955 453.561 754.327 456.726 755.957 460.281C757.587 463.836 758.437 467.699 758.45 471.609C757.883 477.474 755.817 483.094 752.45 487.929C749.742 491.691 746.112 494.694 741.91 496.65C737.707 498.605 733.073 499.449 728.45 499.099C725.01 499.099 722.45 499.099 721.58 506.829C721.58 511.979 721.58 514.559 725.87 515.419C734.506 516.302 743.203 514.504 750.78 510.269C757.599 506.796 763.446 501.68 767.795 495.383C772.143 489.086 774.857 481.806 775.69 474.199C776.662 462.448 772.928 450.791 765.31 441.791C757.691 432.79 746.811 427.182 735.06 426.199L734.29 426.139C731.81 426.837 729.234 427.128 726.66 426.999ZM839.18 471.659L870.1 440.739C870.96 439.879 873.54 437.299 868.38 431.289C867.673 430.332 866.775 429.531 865.742 428.939C864.709 428.347 863.564 427.976 862.38 427.849C861.715 427.862 861.061 428.023 860.466 428.32C859.871 428.618 859.35 429.045 858.94 429.569L828 460.469L797.08 428.689C794.5 426.109 791.93 426.969 787.63 430.409C783.33 433.849 783.34 437.279 785.91 439.859L816.83 470.779L785.74 502.559C784.827 503.505 784.221 504.704 784 505.999C784.025 507.208 784.353 508.39 784.954 509.439C785.555 510.487 786.41 511.368 787.44 511.999C789.117 513.636 791.181 514.819 793.44 515.439C794.995 515.245 796.472 514.652 797.73 513.719L828.65 482.799L859.57 513.719C859.98 514.244 860.501 514.671 861.096 514.968C861.691 515.266 862.345 515.427 863.01 515.439C864.194 515.313 865.339 514.942 866.372 514.35C867.405 513.758 868.303 512.957 869.01 511.999C871.59 508.559 872.45 505.129 869.87 503.409L839.18 471.659Z" fill="white"/>
</g>
<defs>
<clipPath id="clip0_3_365">
<rect width="1024" height="1024" fill="white"/>
</clipPath>
</defs>
</svg>
